X:39
T:O Come O Come Emmanuel
%%stretchlast false
M:4/4
L:1/4
K:F clef=C1
"^vi"[DFd] [DAdf] "^iii¹"[CEAa] "^I¹"[A,Fca] | "^I"[F,cfa] "^ii7¹"[B,dfg] "^ii7"[G,dfb] "^I¹"[A,cfa] | "^V7"[CBeg] "^I"[FAcf]3 | "^V"[CEcg] "^I"[F,Fca] "^I¹"[A,Fcf] "^IV"[B,FBd] | "^I¹"[A,Acf] "^ii¹"[B,Gdg] [G,GBe] "^vi²"[A,FAd] | "^iii"[A,EAc] "^vi"[DFAd]3 | "^ii¹"[B,Gdg]/ "^iii7"[A,Gcg]/ [G,GBg] "^ii"[GBd] "^vi¹"[FAd] | "^♭vi°¹"[EG_de] "^vi"[DFdf] "^I¹"[A,Fcf] "^V²"[G,Gce] | "^II7"[G,F=Bd] "^V"[CEc]3 | "^vi"[DFAf] "^V"[CEcg] "^iii"[A,Eca] "^I"[F,Fca] | "^I¹"[A,cfa] "^ii7¹"[B,dfg] "^ii7"[G,dfb] "^I¹"[A,cfa] | "^V7"[CBeg] "^I"[F,Af]3 | [FAfc'] "^V"[CGec']3 | "^vi"[Ddfa] "^iii"[A,cea]3 | "^I"[F,cfa] "^ii7¹"[B,dfg] "^ii7"[G,dfb] "^I¹"[A,cfa] | "^V7"[CBeg] "^vi"[DAf]3 | "^V"[Cceg] "^I"[F,cfa] "^I¹"[A,Fcf] "^IV"[B,FBd] | "^I¹"[A,Acf] "^ii¹"[B,Gdg] [G,GBe] "^vi²"[A,FAd] | "^iii"[A,EAc] "^vi"[DFAd]3 |]
